ligands/tetradentate/cyclam.svg

<svg height="156" viewBox="0 0 110 156" width="110" xmlns="http://www.w3.org/2000/svg"><text font-family="Helvetica" font-size="280" font-weight="bold" transform="matrix(.05 0 0 .05 65.815 53.038)">HN</text><text font-family="Helvetica" font-size="280" font-weight="bold" transform="matrix(.05 0 0 .05 65.815 113.038)">HN</text><text font-family="Helvetica" font-size="280" font-weight="bold" transform="matrix(.05 0 0 .05 23.965 113.038)">NH</text><text font-family="Helvetica" font-size="280" font-weight="bold" transform="matrix(.05 0 0 .05 23.965 53.038)">NH</text><g transform="matrix(.05 0 0 .05 -220 -287)"><path d="m6154.7 6789.55 10-17.32 384.5 222-20 11.54z"/><path d="m6529.2 7005.77 20-11.54v611.54l-20-11.54z"/><path d="m6529.2 7594.23 20 11.54-383.84 221.62-10-17.32z"/><path d="m6009.6 8040.24h20v465.53l-20-11.54z"/><path d="m6009.6 8494.23 20 11.54-529.6 305.78v-23.1z"/><path d="m5500 8788.45v23.1l-529.6-305.78 20-11.54z"/><path d="m4990.4 8494.23-20 11.54v-465.53h20z"/><path d="m4846.35 7811.06-10 17.32-385.55-222.61 20-11.54z"/><path d="m4470.8 7594.23-20 11.54v-611.54l20 11.54z"/><path d="m4470.8 7005.77-20-11.54 386.21-222.99 10 17.32z"/><path d="m4990.4 6558.24h-20v-464.01l20 11.54z"/><path d="m4990.4 6105.77-20-11.54 529.6-305.78v23.1z"/><path d="m5500 5811.55v-23.1l529.6 305.78-20 11.54z"/><path d="m6029.6 6558.24h-20v-452.47l20-11.54z"/><path d="m5480.29 7265.01-.29 14.99-13.01.21-353.95-410.9 15.16-13.05z"/><path d="m5493.45 7280.22-13.45-.22.29-14.99 379.94-408.39 14.64 13.63z"/><path d="m5466.99 7280.21 13.01-.21.3 15.57-360 446.75-15.57-12.55z"/><path d="m5480.3 7295.57-.3-15.57 13.45.22 390.56 448.75-15.09 13.13z"/><path d="m5120 7280a360 360 0 1 0 720 0 360 360 0 1 0 -720 0z" fill="#fa666a"/></g></svg>

<?xml version="1.0" standalone="no" ?>
<!DOCTYPE svg PUBLIC "-//W3C//DTD SVG 1.1//EN" "http://www.w3.org/Graphics/SVG/1.1/DTD/svg11.dtd">
<svg width="110px" height="156px" viewBox="0 0 110 156" style="background-color: #ffffff00" xmlns="http://www.w3.org/2000/svg" xmlns:xlink="http://www.w3.org/1999/xlink" version="1.1" >
<text x="0" y="0" stroke="none" fill="#000000" transform="matrix(0.05 0 0 0.05 65.8145 53.0381)" font-style="normal" font-weight="bold" font-size="280px" font-family="Helvetica" >
HN</text>
<text x="0" y="0" stroke="none" fill="#000000" transform="matrix(0.05 0 0 0.05 65.8145 113.038)" font-style="normal" font-weight="bold" font-size="280px" font-family="Helvetica" >
HN</text>
<text x="0" y="0" stroke="none" fill="#000000" transform="matrix(0.05 0 0 0.05 23.9648 113.038)" font-style="normal" font-weight="bold" font-size="280px" font-family="Helvetica" >
NH</text>
<text x="0" y="0" stroke="none" fill="#000000" transform="matrix(0.05 0 0 0.05 23.9648 53.0381)" font-style="normal" font-weight="bold" font-size="280px" font-family="Helvetica" >
NH</text>
<path stroke="none" fill="#000000" transform="matrix(0.05 0 0 0.05 -220 -287)" d="M 6154.7,6789.55 L 6164.7,6772.23 L 6549.2,6994.23 L 6529.2,7005.77 L 6154.7,6789.55 Z " />
<path stroke="none" fill="#000000" transform="matrix(0.05 0 0 0.05 -220 -287)" d="M 6529.2,7005.77 L 6549.2,6994.23 L 6549.2,7605.77 L 6529.2,7594.23 L 6529.2,7005.77 Z " />
<path stroke="none" fill="#000000" transform="matrix(0.05 0 0 0.05 -220 -287)" d="M 6529.2,7594.23 L 6549.2,7605.77 L 6165.36,7827.39 L 6155.36,7810.07 L 6529.2,7594.23 Z " />
<path stroke="none" fill="#000000" transform="matrix(0.05 0 0 0.05 -220 -287)" d="M 6009.6,8040.24 L 6029.6,8040.24 L 6029.6,8505.77 L 6009.6,8494.23 L 6009.6,8040.24 Z " />
<path stroke="none" fill="#000000" transform="matrix(0.05 0 0 0.05 -220 -287)" d="M 6009.6,8494.23 L 6029.6,8505.77 L 5500,8811.55 L 5500,8788.45 L 6009.6,8494.23 Z " />
<path stroke="none" fill="#000000" transform="matrix(0.05 0 0 0.05 -220 -287)" d="M 5500,8788.45 L 5500,8811.55 L 4970.4,8505.77 L 4990.4,8494.23 L 5500,8788.45 Z " />
<path stroke="none" fill="#000000" transform="matrix(0.05 0 0 0.05 -220 -287)" d="M 4990.4,8494.23 L 4970.4,8505.77 L 4970.4,8040.24 L 4990.4,8040.24 L 4990.4,8494.23 Z " />
<path stroke="none" fill="#000000" transform="matrix(0.05 0 0 0.05 -220 -287)" d="M 4846.35,7811.06 L 4836.35,7828.38 L 4450.8,7605.77 L 4470.8,7594.23 L 4846.35,7811.06 Z " />
<path stroke="none" fill="#000000" transform="matrix(0.05 0 0 0.05 -220 -287)" d="M 4470.8,7594.23 L 4450.8,7605.77 L 4450.8,6994.23 L 4470.8,7005.77 L 4470.8,7594.23 Z " />
<path stroke="none" fill="#000000" transform="matrix(0.05 0 0 0.05 -220 -287)" d="M 4470.8,7005.77 L 4450.8,6994.23 L 4837.01,6771.24 L 4847.01,6788.56 L 4470.8,7005.77 Z " />
<path stroke="none" fill="#000000" transform="matrix(0.05 0 0 0.05 -220 -287)" d="M 4990.4,6558.24 L 4970.4,6558.24 L 4970.4,6094.23 L 4990.4,6105.77 L 4990.4,6558.24 Z " />
<path stroke="none" fill="#000000" transform="matrix(0.05 0 0 0.05 -220 -287)" d="M 4990.4,6105.77 L 4970.4,6094.23 L 5500,5788.45 L 5500,5811.55 L 4990.4,6105.77 Z " />
<path stroke="none" fill="#000000" transform="matrix(0.05 0 0 0.05 -220 -287)" d="M 5500,5811.55 L 5500,5788.45 L 6029.6,6094.23 L 6009.6,6105.77 L 5500,5811.55 Z " />
<path stroke="none" fill="#000000" transform="matrix(0.05 0 0 0.05 -220 -287)" d="M 6029.6,6558.24 L 6009.6,6558.24 L 6009.6,6105.77 L 6029.6,6094.23 L 6029.6,6558.24 Z " />
<path stroke="none" fill="#000000" transform="matrix(0.05 0 0 0.05 -220 -287)" d="M 5480.29,7265.01 L 5480,7280 L 5466.99,7280.21 L 5113.04,6869.31 L 5128.2,6856.26 L 5480.29,7265.01 Z " />
<path stroke="none" fill="#000000" transform="matrix(0.05 0 0 0.05 -220 -287)" d="M 5493.45,7280.22 L 5480,7280 L 5480.29,7265.01 L 5860.23,6856.62 L 5874.87,6870.25 L 5493.45,7280.22 Z " />
<path stroke="none" fill="#000000" transform="matrix(0.05 0 0 0.05 -220 -287)" d="M 5466.99,7280.21 L 5480,7280 L 5480.3,7295.57 L 5120.3,7742.32 L 5104.73,7729.77 L 5466.99,7280.21 Z " />
<path stroke="none" fill="#000000" transform="matrix(0.05 0 0 0.05 -220 -287)" d="M 5480.3,7295.57 L 5480,7280 L 5493.45,7280.22 L 5884.01,7728.97 L 5868.92,7742.1 L 5480.3,7295.57 Z " />
<path stroke="none" fill="#fa666a" transform="matrix(0.05 0 0 0.05 -220 -287)" d="M 5120,7280 A 360,360 0 1 0 5840,7280 A 360,360 0 1 0 5120,7280 Z " />
</svg>
